unlock-app/src/static/images/svg/eth.svg

<svg width="7" height="11" xmlns="http://www.w3.org/2000/svg">
    <path d="M1 6V5h5v1H1zm-1 5v-1h7v1H0zM0 1V0h7v1H0z" fill="#333" fill-rule="evenodd"/>
</svg>

<svg width="7" height="11" xmlns="http://www.w3.org/2000/svg">
	<path fill-rule="evenodd" clip-rule="evenodd" d="M1 6V5H6V6H1ZM0 11V10H7V11H0ZM0 1V0H7V1H0Z"/>
</svg>
